dhis-2/dhis-support/dhis-support-system/src/main/resources/SVGs/pwid_positive.svg

<?xml version="1.0" encoding="UTF-8" standalone="no"?>
<!-- Created with Inkscape (http://www.inkscape.org/) -->
<svg id="svg8" xmlns:rdf="http://www.w3.org/1999/02/22-rdf-syntax-ns#" xmlns="http://www.w3.org/2000/svg" xmlns:osb="http://www.openswatchbook.org/uri/2009/osb" height="48" width="48" version="1.1" xmlns:cc="http://creativecommons.org/ns#" viewBox="0 0 12.7 12.7" xmlns:dc="http://purl.org/dc/elements/1.1/">
 <title id="title4753">UIO-icon</title>
 <metadata id="metadata5">
  <rdf:RDF>
   <cc:Work rdf:about="">
    <dc:format>image/svg+xml</dc:format>
    <dc:type rdf:resource="http://purl.org/dc/dcmitype/StillImage"/>
    <dc:title>UIO-icon</dc:title>
    <dc:creator>
     <cc:Agent>
      <dc:title>Joaquín Urbano</dc:title>
     </cc:Agent>
    </dc:creator>
    <dc:rights>
     <cc:Agent>
      <dc:title>GPL</dc:title>
     </cc:Agent>
    </dc:rights>
   </cc:Work>
  </rdf:RDF>
 </metadata>
 <g id="layer1" transform="translate(0,-284.3)" fill="#333">
  <path id="path1975" d="m4 4v27.641l21.172 11.375 1.0234 0.7832c0.142 0.108 0.151 0.12 0.256 0.201h17.549v-8.1797c-0.51693-0.3723-0.94767-0.54193-1.4668-0.57812-0.18404-0.013002-1.1824 0.09626-2.2188 0.24219-2.9052 0.40732-2.7841 0.44328-5.5664-1.627l-1.777-1.324-22.283-17.887-3.0239 0.655c-0.4771 0.103-0.9365-0.167-1.0313-0.606-0.0943-0.438 0.2122-0.873 0.6895-0.976l1.7382-0.377-1.6035-1.291c-2.1512-1.598-2.0449-1.186-2.2343-4.1682l0.039-3.8828-0.0058 0.0078v-0.0078h-0.25zm22.664 1.3633c-0.16162 0.043427-0.25565 0.21347-0.21094 0.375l0.33 1.2265-1.324 0.3575-1.691 0.4589-7.864 2.129c-0.92223 0.24968-1.5133 1.1035-1.4609 2.0195-0.043153 0.00046866-0.09746-0.00032152-0.14062 0.009766-0.31304 0.084711-0.50455 0.36895-0.50391 0.67773l-6.1055 1.6543c-0.16223 0.043782-0.25759 0.20957-0.21289 0.37109 0.042286 0.16376 0.21352 0.25138 0.375 0.20703l6.0957-1.6484c0.15045 0.28448 0.47169 0.44738 0.79492 0.36133 0.044459-0.007521 0.090601-0.04704 0.13086-0.066406 0.42406 0.79827 1.3533 1.2224 2.2598 0.98047l7.8652-2.1309 1.6914-0.45703 1.3262-0.35742 0.33203 1.2266c0.042187 0.16369 0.21511 0.25306 0.37695 0.20898 0.16169-0.043378 0.25546-0.20774 0.21094-0.36914l-0.333-1.228-0.371-1.3749 3.66-0.9902 0.182 0.6777c0.04689 0.18233 0.21861 0.29047 0.38281 0.24414 0.1617-0.043374 0.25419-0.22434 0.20508-0.4043l-0.857-3.1737c-0.014712-0.042792-0.03223-0.090956-0.0625-0.12109l-0.003906 0.0058594c-0.038592-0.052214-0.086094-0.090914-0.14258-0.11328-0.056484-0.022375-0.11763-0.029168-0.17773-0.013672-0.16222 0.043786-0.25416 0.22435-0.20508 0.4043l0.24 0.8867-3.66 0.9902-0.426-1.5801-0.334-1.2285c-0.042-0.1637-0.215-0.2538-0.373-0.2148zm0.27734 2.1836 0.27148 1-3.0684 0.83203-0.27148-1zm4.6738 0.4375 0.11914 0.4375-3.6602 0.99023-0.11914-0.4375zm-8.3262 0.55078 0.91992 3.3887-1.25 0.33789-1.4512-3.248 0.021484-0.0039063 0.19531-0.052734 0.17773 0.66016c0.042287 0.16376 0.21329 0.25121 0.375 0.20703 0.16177-0.043317 0.25508-0.20723 0.21094-0.36914l-0.17773-0.66016zm-2.1445 0.58203 1.4492 3.2461-0.14648 0.037109-5.3359 1.4453c-0.8072 0.21827-1.6306-0.25328-1.8496-1.0605l-0.023438-0.082031-0.037109-0.16016-0.027344-0.12305-0.03125-0.12305c-0.2187-0.8073 0.25305-1.635 1.0605-1.8535l0.32617-0.087891 0.17969 0.66016c0.042182 0.16368 0.21119 0.25498 0.37305 0.21094 0.16177-0.043317 0.25551-0.20966 0.21094-0.37109l-0.177-0.661 0.715-0.193 0.17969 0.66016c0.042187 0.16369 0.21315 0.25694 0.375 0.21289 0.162-0.043 0.257-0.211 0.213-0.373l-0.17773-0.66016 0.71484-0.19141 0.17969 0.66016c0.042292 0.16376 0.21135 0.25122 0.37305 0.20703 0.16177-0.043317 0.25747-0.20966 0.21289-0.37109l-0.18-0.6606 0.718-0.1934 0.176 0.6621c0.04227 0.16374 0.21132 0.25119 0.37305 0.20703 0.16177-0.043317 0.25739-0.20776 0.21289-0.36914l-0.178-0.6601zm6.2246 0.015625 0.11914 0.43555l-3.066 0.8336-0.117-0.4391zm0.2793 1.0195 0.21289 0.7832-3.0664 0.83008-0.21289-0.7793zm-8 1.0625c-0.016568 0.001568-0.032931 0.00484-0.048828 0.009766-0.12885 0.03512-0.2049 0.16798-0.16992 0.29688 0.034253 0.12964 0.16739 0.20672 0.29688 0.17188 0.13162-0.034168 0.20926-0.17004 0.17188-0.30078-0.013118-0.044761-0.038891-0.084778-0.074219-0.11523-0.011472-0.010274-0.023898-0.019431-0.037109-0.027344-0.041625-0.025425-0.089961-0.03768-0.13867-0.035156zm1.748 0.39453c-0.020509 0.001972-0.040783 0.005896-0.060547 0.011719-0.16458 0.043924-0.26701 0.20782-0.23438 0.375l-0.001953 0.001953c0.001706 0.007226 0.003661 0.014392 0.005859 0.021484 0.048225 0.17187 0.22642 0.27233 0.39844 0.22461 0.17169-0.04739 0.2729-0.22451 0.22656-0.39648-0.01708-0.059734-0.05098-0.11329-0.097656-0.1543h0.003906c-0.01621-0.014773-0.033879-0.027861-0.052734-0.039062-0.056491-0.03366-0.12189-0.049329-0.1875-0.044922zm-3.9766 0.34766c-0.01391 0.001146-0.027658 0.003765-0.041016 0.007813-0.10262 0.030301-0.1624 0.13686-0.13477 0.24023 0.030276 0.10457 0.13952 0.16488 0.24414 0.13477 0.10596-0.027719 0.16908-0.13642 0.14062-0.24219-0.010742-0.036425-0.031765-0.068976-0.060547-0.09375l-0.003906 0.005859c-0.039059-0.036407-0.091204-0.055433-0.14453-0.052734zm-1.8379 0.2832c-0.008567 0.00050856-0.017067 0.001816-0.025391 0.003906-0.070262 0.018738-0.11387 0.08885-0.099609 0.16016 0.001177 0.003304 0.00248 0.006561 0.003906 0.009766 0.019621 0.072246 0.093337 0.11561 0.16602 0.097656 0.073204-0.019607 0.11683-0.094651 0.097656-0.16797-0.005738-0.026801-0.019338-0.051282-0.039062-0.070312l-0.001953 0.001953c-0.0277-0.024983-0.064345-0.037668-0.10156-0.035156zm3.3398 0.25391c-0.015849 0.001011-0.031555 0.003628-0.046875 0.007813-0.11922 0.031728-0.19349 0.15039-0.16992 0.27148 0.00245 0.004643 0.005056 0.009203 0.007813 0.013672 0.03516 0.12451 0.16449 0.19704 0.28906 0.16211 0.12335-0.034343 0.19637-0.16126 0.16406-0.28516-0.011098-0.044241-0.034854-0.084286-0.068359-0.11523l-0.003906 0.003906c-0.047102-0.041814-0.10904-0.06293-0.17188-0.058594zm-2.5527 0.30664c-0.011266 0.00058657-0.022417 0.002554-0.033203 0.005859-0.06937 0.0187-0.11273 0.087564-0.099609 0.1582l-0.001953 0.003906c0.001252 0.001986 0.002554 0.00394 0.003906 0.005859 0.019607 0.073204 0.094651 0.11683 0.16797 0.097656 0.073204-0.019607 0.11683-0.094651 0.097656-0.16797-0.005548-0.025877-0.018431-0.04961-0.037109-0.068359l0.003906-0.001953c-0.007258-0.005995-0.015112-0.011231-0.023438-0.015625-0.023727-0.013464-0.050917-0.019582-0.078125-0.017578z" transform="matrix(.26458 0 0 .26458 0 284.3)" stroke-width="3.7795"/>
 </g>
</svg>

<svg width="48" height="48" viewBox="0 0 48 48" fill="none" xmlns="http://www.w3.org/2000/svg">
<path d="M4 4V31.6407L25.1717 43.0155L26.1951 43.7987C26.3371 43.9067 26.3461 43.9187 26.4511 43.9997H43.9999V35.8201C43.483 35.4478 43.0522 35.2782 42.5331 35.242C42.3491 35.229 41.3507 35.3382 40.3143 35.4842C37.4092 35.8915 37.5303 35.9275 34.748 33.8572L32.971 32.5332L10.6883 14.6464L7.66445 15.3014C7.18736 15.4044 6.72797 15.1344 6.63317 14.6954C6.53887 14.2574 6.84536 13.8224 7.32266 13.7194L9.06084 13.3425L7.45736 12.0515C5.30618 10.4535 5.41248 10.8655 5.22308 7.88332L5.26208 4.00057L5.25628 4.00837V4.00057H5.00629L4 4ZM26.6637 5.36328C26.5021 5.40671 26.4081 5.57675 26.4528 5.73828L26.7828 6.96476L25.4588 7.32226L23.7678 7.78115L15.9039 9.91013C14.9817 10.1598 14.3906 11.0136 14.443 11.9296C14.3999 11.9301 14.3456 11.9293 14.3024 11.9394C13.9894 12.0241 13.7979 12.3083 13.7985 12.6171L7.69308 14.2714C7.53086 14.3151 7.4355 14.4809 7.4802 14.6425C7.52248 14.8062 7.69371 14.8938 7.85519 14.8495L13.9508 13.2011C14.1013 13.4856 14.4225 13.6485 14.7457 13.5624C14.7902 13.5549 14.8363 13.5154 14.8766 13.496C15.3006 14.2943 16.2299 14.7184 17.1364 14.4765L25.0015 12.3456L26.6928 11.8886L28.019 11.5312L28.351 12.7578C28.3932 12.9214 28.5662 13.0108 28.728 12.9667C28.8897 12.9234 28.9834 12.759 28.9389 12.5976L28.6059 11.3696L28.2349 9.99472L31.8949 9.00454L32.0769 9.68223C32.1238 9.86456 32.2955 9.9727 32.4597 9.92637C32.6214 9.88299 32.7139 9.70203 32.6648 9.52207L31.8078 6.34841C31.7931 6.30562 31.7756 6.25746 31.7453 6.22732L31.7414 6.23318C31.7028 6.18097 31.6553 6.14227 31.5988 6.1199C31.5423 6.09753 31.4812 6.09074 31.4211 6.10623C31.2589 6.15002 31.1669 6.33058 31.216 6.51053L31.456 7.39721L27.796 8.3874L27.37 6.80732L27.036 5.57884C26.994 5.41514 26.821 5.32504 26.6631 5.36404L26.6637 5.36328ZM26.9411 7.54686L27.2125 8.54684L24.1442 9.37886L23.8727 8.37888L26.9411 7.54686ZM31.6148 7.98435L31.7339 8.42184L28.0738 9.41206L27.9546 8.97457L31.6148 7.98435ZM23.2887 8.53512L24.2086 11.9238L22.9586 12.2617L21.5074 9.01371L21.5289 9.0098L21.7242 8.95707L21.902 9.61722C21.9442 9.78098 22.1152 9.86843 22.277 9.82425C22.4387 9.78093 22.532 9.61702 22.4879 9.45511L22.3102 8.79496L23.2887 8.53512ZM21.1442 9.11715L22.5934 12.3632L22.4469 12.4003L17.1111 13.8456C16.3039 14.0639 15.4805 13.5923 15.2615 12.7851L15.2381 12.7031L15.201 12.5429L15.1736 12.4199L15.1424 12.2968C14.9237 11.4895 15.3954 10.6618 16.2029 10.4433L16.529 10.3555L16.7087 11.0156C16.7509 11.1793 16.9199 11.2706 17.0818 11.2265C17.2435 11.1832 17.3373 11.0169 17.2927 10.8555L17.1157 10.1945L17.8307 10.0015L18.0104 10.6616C18.0526 10.8253 18.2235 10.9186 18.3854 10.8745C18.5474 10.8315 18.6424 10.6635 18.5984 10.5015L18.4206 9.84136L19.1355 9.64996L19.3152 10.3101C19.3575 10.4739 19.5265 10.5613 19.6882 10.5171C19.85 10.4738 19.9457 10.3075 19.9011 10.146L19.7211 9.48546L20.4391 9.29206L20.6151 9.95415C20.6574 10.1179 20.8264 10.2053 20.9881 10.1612C21.1499 10.1179 21.2455 9.95342 21.201 9.79204L21.023 9.13195L21.1442 9.11715ZM27.3687 9.13277L27.4879 9.56832L24.4219 10.4019L24.3049 9.96281L27.3687 9.13277ZM27.648 10.1523L27.8609 10.9354L24.7946 11.7655L24.5817 10.9862L27.648 10.1523ZM19.6481 11.2147C19.6316 11.2163 19.6152 11.2196 19.5993 11.2245C19.4705 11.2596 19.3944 11.3925 19.4294 11.5214C19.4637 11.651 19.5968 11.7281 19.7263 11.6933C19.8579 11.6591 19.9355 11.5232 19.8982 11.3925C19.885 11.3477 19.8593 11.3077 19.8239 11.2773C19.8125 11.267 19.8 11.2578 19.7868 11.2499C19.7452 11.2245 19.6969 11.2122 19.6482 11.2148L19.6481 11.2147ZM21.3961 11.6093C21.3756 11.6112 21.3553 11.6152 21.3356 11.621C21.171 11.6649 21.0686 11.8288 21.1012 11.996L21.0992 11.9979C21.101 12.0052 21.1029 12.0123 21.1051 12.0194C21.1533 12.1913 21.3315 12.2917 21.5035 12.244C21.6752 12.1966 21.7764 12.0195 21.7301 11.8476C21.713 11.7878 21.6791 11.7343 21.6324 11.6933H21.6363C21.6201 11.6785 21.6025 11.6654 21.5836 11.6542C21.5271 11.6205 21.4617 11.6049 21.3961 11.6093ZM17.4196 11.9569C17.4057 11.9581 17.3919 11.9607 17.3786 11.9647C17.2759 11.995 17.2162 12.1016 17.2438 12.205C17.2741 12.3095 17.3833 12.3698 17.4879 12.3397C17.5939 12.312 17.657 12.2033 17.6285 12.0975C17.6178 12.0611 17.5968 12.0286 17.568 12.0038L17.5641 12.0097C17.525 11.9732 17.4729 11.9542 17.4196 11.9569ZM15.5817 12.2401C15.5731 12.2406 15.5646 12.2419 15.5563 12.244C15.486 12.2628 15.4424 12.3329 15.4567 12.4042C15.4579 12.4075 15.4592 12.4107 15.4606 12.414C15.4802 12.4862 15.5539 12.5296 15.6266 12.5116C15.6998 12.492 15.7434 12.417 15.7243 12.3436C15.7185 12.3168 15.7049 12.2924 15.6852 12.2733L15.6833 12.2753C15.6556 12.2503 15.6189 12.2376 15.5817 12.2401ZM18.9215 12.494C18.9056 12.495 18.8899 12.4977 18.8746 12.5018C18.7554 12.5336 18.6811 12.6522 18.7047 12.7733C18.7071 12.778 18.7097 12.7825 18.7125 12.787C18.7476 12.9115 18.877 12.984 19.0015 12.9491C19.1249 12.9148 19.1979 12.7878 19.1656 12.6639C19.1545 12.6197 19.1307 12.5797 19.0972 12.5487L19.0933 12.5526C19.0462 12.5108 18.9843 12.4897 18.9214 12.494H18.9215ZM16.3688 12.8007C16.3575 12.8013 16.3464 12.8032 16.3356 12.8065C16.2662 12.8252 16.2229 12.8941 16.236 12.9647L16.234 12.9686C16.2353 12.9706 16.2366 12.9726 16.2379 12.9745C16.2575 13.0477 16.3326 13.0913 16.4059 13.0721C16.4791 13.0525 16.5227 12.9775 16.5036 12.9042C16.498 12.8783 16.4851 12.8546 16.4664 12.8358L16.4703 12.8339C16.4631 12.8279 16.4552 12.8226 16.4469 12.8182C16.4232 12.8048 16.396 12.7987 16.3688 12.8007Z" fill="#333333"/>
</svg>
